X: 28322
T: Mudgee Schottische, The
R: barndance
M: 4/4
K: Gmajor
G>A|B2 B2 c>Bc>e|d2 G2 G2 G>A|B2 B2 c>Bc>e|d>ed>B A2 G>A|
B2 B2 c>Bc>e|d2 G2 G2 G>A|B2 B>G A2 G>F|G6||
(3def|g2 G2 e2 G2|e>fe>d B2 G>B|d2 d>B A2- A>B|(3cdc B>A G2 (3def|
g2 G2 e2 G2|e>fe>d B2 G>B|d2 d>B (3cdc B>A|G6||

